;FLAVOR:Marlin
;TIME:1564
;Filament used: 1.42475m
;Layer height: 0.2
;MINX:79.7
;MINY:79.7
;MINZ:0.3
;MAXX:120.3
;MAXY:120.3
;MAXZ:19.9
;Generated with Cura_SteamEngine 4.13.1
M140 S60
M105
M190 S60
M104 S200
M105
M109 S200
M82 ;absolute extrusion mode
G21 ;metric values
 G90 ;absolute positioning
 M82 ;set extruder to absolute mode
 M107 ;start with the fan off
 G28 X0 Y0 ;move X/Y to min endstops
 G28 Z0 ;move Z to min endstops
 G1 Z15.0 F120 ;move the platform down 15mm
 G92 E0 ;zero the extruded length
 G1 F200 E6 ;extrude 6 mm of feed stock
 G92 E0 ;zero the extruded length again
 G1 F120 
 ;Put printing message on LCD screen
 M117 Printing...
G92 E0
G92 E0
G1 F1500 E-6.5
;LAYER_COUNT:100
;LAYER:0
M107
G0 F3600 X82.123 Y81.849 Z0.3
;TYPE:SKIRT
G1 F1500 E0
G1 F1800 X82.722 Y81.334 E0.03941
G1 X83.37 Y80.883 E0.0788
G1 X84.061 Y80.499 E0.11824
G1 X84.786 Y80.187 E0.15762
G1 X85.539 Y79.95 E0.197
G1 X86.313 Y79.791 E0.23642
G1 X87.098 Y79.71 E0.27579
G1 X87.5 Y79.7 E0.29586
G1 X112.5 Y79.7 E1.54311
G1 X113.289 Y79.74 E1.58252
G1 X114.069 Y79.859 E1.62189
G1 X114.834 Y80.057 E1.66131
G1 X115.574 Y80.331 E1.70068
G1 X116.283 Y80.679 E1.74008
G1 X116.954 Y81.097 E1.77953
G1 X117.578 Y81.58 E1.81889
G1 X118.151 Y82.123 E1.85828
G1 X118.666 Y82.722 E1.89769
G1 X119.117 Y83.37 E1.93708
G1 X119.501 Y84.061 E1.97652
G1 X119.813 Y84.786 E2.01589
G1 X120.05 Y85.539 E2.05528
G1 X120.209 Y86.313 E2.0947
G1 X120.29 Y87.098 E2.13407
G1 X120.3 Y87.5 E2.15413
G1 X120.3 Y112.5 E3.40139
G1 X120.26 Y113.289 E3.4408
G1 X120.141 Y114.069 E3.48017
G1 X119.943 Y114.834 E3.51959
G1 X119.669 Y115.574 E3.55896
G1 X119.321 Y116.283 E3.59836
G1 X118.903 Y116.954 E3.6378
G1 X118.42 Y117.578 E3.67717
G1 X117.877 Y118.151 E3.71655
G1 X117.278 Y118.666 E3.75597
G1 X116.63 Y119.117 E3.79535
G1 X115.939 Y119.501 E3.83479
G1 X115.214 Y119.813 E3.87417
G1 X114.461 Y120.05 E3.91355
G1 X113.687 Y120.209 E3.95298
G1 X112.902 Y120.29 E3.99235
G1 X112.5 Y120.3 E4.01241
G1 X87.5 Y120.3 E5.25966
G1 X86.711 Y120.26 E5.29908
G1 X85.931 Y120.141 E5.33844
G1 X85.166 Y119.943 E5.37787
G1 X84.426 Y119.669 E5.41724
G1 X83.717 Y119.321 E5.45664
G1 X83.046 Y118.903 E5.49608
G1 X82.422 Y118.42 E5.53545
G1 X81.849 Y117.877 E5.57483
G1 X81.334 Y117.278 E5.61424
G1 X80.883 Y116.63 E5.65363
G1 X80.499 Y115.939 E5.69307
G1 X80.187 Y115.214 E5.73245
G1 X79.95 Y114.461 E5.77183
G1 X79.791 Y113.687 E5.81125
G1 X79.71 Y112.902 E5.85062
G1 X79.7 Y112.5 E5.87069
G1 X79.7 Y87.5 E7.11794
G1 X79.74 Y86.711 E7.15736
G1 X79.859 Y85.931 E7.19672
G1 X80.057 Y85.166 E7.23614
G1 X80.331 Y84.426 E7.27551
G1 X80.679 Y83.717 E7.31492
G1 X81.097 Y83.046 E7.35436
G1 X81.58 Y82.422 E7.39372
G1 X82.123 Y81.849 E7.43311
G0 F3600 X82.516 Y82.03
G1 F1800 X83.111 Y81.542 E7.4715
G1 X83.753 Y81.119 E7.50986
G1 X84.436 Y80.764 E7.54826
G1 X85.151 Y80.483 E7.58659
G1 X85.893 Y80.277 E7.62501
G1 X86.651 Y80.149 E7.66336
G1 X87.5 Y80.1 E7.70579
G1 X112.5 Y80.1 E8.95304
G1 X113.268 Y80.14 E8.99141
G1 X114.028 Y80.259 E9.02979
G1 X114.771 Y80.457 E9.06815
G1 X115.49 Y80.731 E9.10654
G1 X116.176 Y81.078 E9.14489
G1 X116.823 Y81.494 E9.18327
G1 X117.423 Y81.975 E9.22163
G1 X117.97 Y82.516 E9.26001
G1 X118.458 Y83.111 E9.29841
G1 X118.881 Y83.753 E9.33676
G1 X119.236 Y84.436 E9.37517
G1 X119.517 Y85.151 E9.41349
G1 X119.723 Y85.893 E9.45191
G1 X119.851 Y86.651 E9.49026
G1 X119.9 Y87.5 E9.53269
G1 X119.9 Y112.5 E10.77995
G1 X119.86 Y113.268 E10.81831
G1 X119.741 Y114.028 E10.85669
G1 X119.543 Y114.771 E10.89505
G1 X119.269 Y115.49 E10.93344
G1 X118.922 Y116.176 E10.9718
G1 X118.506 Y116.823 E11.01017
G1 X118.025 Y117.423 E11.04854
G1 X117.484 Y117.97 E11.08692
G1 X116.889 Y118.458 E11.12531
G1 X116.247 Y118.881 E11.16367
G1 X115.564 Y119.236 E11.20207
G1 X114.849 Y119.517 E11.2404
G1 X114.107 Y119.723 E11.27882
G1 X113.349 Y119.851 E11.31717
G1 X112.5 Y119.9 E11.3596
G1 X87.5 Y119.9 E12.60685
G1 X86.732 Y119.86 E12.64522
G1 X85.972 Y119.741 E12.6836
G1 X85.229 Y119.543 E12.72196
G1 X84.51 Y119.269 E12.76035
G1 X83.824 Y118.922 E12.7987
G1 X83.177 Y118.506 E12.83708
G1 X82.577 Y118.025 E12.87544
G1 X82.03 Y117.484 E12.91383
G1 X81.542 Y116.889 E12.95222
G1 X81.119 Y116.247 E12.99057
G1 X80.764 Y115.564 E13.02898
G1 X80.483 Y114.849 E13.0673
G1 X80.277 Y114.107 E13.10572
G1 X80.149 Y113.349 E13.14408
G1 X80.1 Y112.5 E13.1865
G1 X80.1 Y87.5 E14.43376
G1 X80.14 Y86.732 E14.47213
G1 X80.259 Y85.972 E14.5105
G1 X80.457 Y85.229 E14.54887
G1 X80.731 Y84.51 E14.58725
G1 X81.078 Y83.824 E14.62561
G1 X81.494 Y83.177 E14.66398
G1 X81.975 Y82.577 E14.70235
G1 X82.516 Y82.03 E14.74073
G0 F3600 X82.908 Y82.216
G1 F1800 X83.498 Y81.757 E14.77802
G1 X84.134 Y81.362 E14.81538
G1 X84.808 Y81.038 E14.85269
G1 X85.513 Y80.788 E14.89
G1 X86.241 Y80.614 E14.92735
G1 X86.983 Y80.519 E14.96467
G1 X87.5 Y80.5 E14.99048
G1 X112.5 Y80.5 E16.23773
G1 X113.247 Y80.54 E16.27506
G1 X113.985 Y80.659 E16.31235
G1 X114.707 Y80.857 E16.3497
G1 X115.403 Y81.13 E16.387
G1 X116.066 Y81.477 E16.42433
G1 X116.689 Y81.892 E16.46168
G1 X117.263 Y82.371 E16.49898
G1 X117.784 Y82.908 E16.53631
G1 X118.243 Y83.498 E16.5736
G1 X118.638 Y84.134 E16.61095
G1 X118.962 Y84.808 E16.64826
G1 X119.212 Y85.513 E16.68558
G1 X119.386 Y86.241 E16.72292
G1 X119.481 Y86.983 E16.76024
G1 X119.5 Y87.5 E16.78605
G1 X119.5 Y112.5 E18.03331
G1 X119.46 Y113.247 E18.07063
G1 X119.341 Y113.985 E18.10792
G1 X119.143 Y114.707 E18.14528
G1 X118.87 Y115.403 E18.18257
G1 X118.523 Y116.066 E18.21991
G1 X118.108 Y116.689 E18.25725
G1 X117.629 Y117.263 E18.29455
G1 X117.092 Y117.784 E18.33188
G1 X116.502 Y118.243 E18.36917
G1 X115.866 Y118.638 E18.40653
G1 X115.192 Y118.962 E18.44384
G1 X114.487 Y119.212 E18.48115
G1 X113.759 Y119.386 E18.5185
G1 X113.017 Y119.481 E18.55582
G1 X112.5 Y119.5 E18.58163
G1 X87.5 Y119.5 E19.82888
G1 X86.753 Y119.46 E19.86621
G1 X86.015 Y119.341 E19.9035
G1 X85.293 Y119.143 E19.94085
G1 X84.597 Y118.87 E19.97815
G1 X83.934 Y118.523 E20.01548
G1 X83.311 Y118.108 E20.05283
G1 X82.737 Y117.629 E20.09013
G1 X82.216 Y117.092 E20.12746
G1 X81.757 Y116.502 E20.16475
G1 X81.362 Y115.866 E20.2021
G1 X81.038 Y115.192 E20.23941
G1 X80.788 Y114.487 E20.27673
G1 X80.614 Y113.759 E20.31407
G1 X80.519 Y113.017 E20.35139
G1 X80.5 Y112.5 E20.3772
G1 X80.5 Y87.5 E21.62446
G1 X80.54 Y86.753 E21.66178
G1 X80.659 Y86.015 E21.69908
G1 X80.857 Y85.293 E21.73643
G1 X81.13 Y84.597 E21.77373
G1 X81.477 Y83.934 E21.81106
G1 X81.892 Y83.311 E21.84841
G1 X82.371 Y82.737 E21.8857
G1 X82.908 Y82.216 E21.92303
G0 F3600 X82.765 Y82.902
G1 F1800 X83.299 Y82.409 E21.95929
G1 X83.884 Y81.979 E21.99551
G1 X84.513 Y81.615 E22.03177
G1 X85.178 Y81.322 E22.06802
G1 X85.871 Y81.104 E22.10427
G1 X86.583 Y80.964 E22.14047
G1 X87.5 Y80.9 E22.18633
G1 X112.5 Y80.9 E23.43359
G1 X113.225 Y80.94 E23.46981
G1 X113.942 Y81.059 E23.50607
G1 X114.641 Y81.257 E23.54232
G1 X115.314 Y81.53 E23.57855
G1 X115.953 Y81.875 E23.61478
G1 X116.55 Y82.289 E23.65103
G1 X117.098 Y82.765 E23.68724
G1 X117.591 Y83.299 E23.7235
G1 X118.021 Y83.884 E23.75972
G1 X118.385 Y84.513 E23.79598
G1 X118.678 Y85.178 E23.83223
G1 X118.896 Y85.871 E23.86848
G1 X119.036 Y86.583 E23.90468
G1 X119.1 Y87.5 E23.95054
G1 X119.1 Y112.5 E25.19779
G1 X119.06 Y113.225 E25.23402
G1 X118.941 Y113.942 E25.27028
G1 X118.743 Y114.641 E25.30652
G1 X118.47 Y115.314 E25.34276
G1 X118.125 Y115.953 E25.37899
G1 X117.711 Y116.55 E25.41523
G1 X117.235 Y117.098 E25.45145
G1 X116.701 Y117.591 E25.48771
G1 X116.116 Y118.021 E25.52393
G1 X115.487 Y118.385 E25.56018
G1 X114.822 Y118.678 E25.59644
G1 X114.129 Y118.896 E25.63268
G1 X113.417 Y119.036 E25.66888
G1 X112.5 Y119.1 E25.71475
G1 X87.5 Y119.1 E26.962
G1 X86.775 Y119.06 E26.99823
G1 X86.058 Y118.941 E27.03449
G1 X85.359 Y118.743 E27.07073
G1 X84.686 Y118.47 E27.10697
G1 X84.047 Y118.125 E27.14319
G1 X83.45 Y117.711 E27.17944
G1 X82.902 Y117.235 E27.21565
G1 X82.409 Y116.701 E27.25191
G1 X81.979 Y116.116 E27.28813
G1 X81.615 Y115.487 E27.32439
G1 X81.322 Y114.822 E27.36065
G1 X81.104 Y114.129 E27.39689
G1 X80.964 Y113.417 E27.43309
G1 X80.9 Y112.5 E27.47895
G1 X80.9 Y87.5 E28.72621
G1 X80.94 Y86.775 E28.76243
G1 X81.059 Y86.058 E28.79869
G1 X81.257 Y85.359 E28.83494
G1 X81.53 Y84.686 E28.87117
G1 X81.875 Y84.047 E28.9074
G1 X82.289 Y83.45 E28.94365
G1 X82.765 Y82.902 E28.97986
G0 F3600 X83.159 Y83.073
G1 F1800 X83.689 Y82.609 E29.015
G1 X84.268 Y82.209 E29.05011
G1 X84.889 Y81.877 E29.08525
G1 X85.543 Y81.617 E29.12036
G1 X86.223 Y81.433 E29.1555
G1 X86.919 Y81.327 E29.19063
G1 X87.5 Y81.3 E29.21964
G1 X112.5 Y81.3 E30.4669
G1 X113.203 Y81.34 E30.50203
G1 X113.897 Y81.459 E30.53716
G1 X114.572 Y81.657 E30.57225
G1 X115.221 Y81.929 E30.60736
G1 X115.835 Y82.274 E30.6425
G1 X116.406 Y82.685 E30.6776
G1 X116.927 Y83.159 E30.71274
G1 X117.391 Y83.689 E30.74788
G1 X117.791 Y84.268 E30.78299
G1 X118.123 Y84.889 E30.81812
G1 X118.383 Y85.543 E30.85323
G1 X118.567 Y86.223 E30.88838
G1 X118.673 Y86.919 E30.9235
G1 X118.7 Y87.5 E30.95252
G1 X118.7 Y112.5 E32.19978
G1 X118.66 Y113.203 E32.2349
G1 X118.541 Y113.897 E32.27003
G1 X118.343 Y114.572 E32.30513
G1 X118.071 Y115.221 E32.34024
G1 X117.726 Y115.835 E32.37537
G1 X117.315 Y116.406 E32.41047
G1 X116.841 Y116.927 E32.44561
G1 X116.311 Y117.391 E32.48076
G1 X115.732 Y117.791 E32.51587
G1 X115.111 Y118.123 E32.551
G1 X114.457 Y118.383 E32.58611
G1 X113.777 Y118.567 E32.62125
G1 X113.081 Y118.673 E32.65638
G1 X112.5 Y118.7 E32.6854
G1 X87.5 Y118.7 E33.93265
G1 X86.797 Y118.66 E33.96778
G1 X86.103 Y118.541 E34.00291
G1 X85.428 Y118.343 E34.038
G1 X84.779 Y118.071 E34.07311
G1 X84.165 Y117.726 E34.10825
G1 X83.594 Y117.315 E34.14335
G1 X83.073 Y116.841 E34.17849
G1 X82.609 Y116.311 E34.21363
G1 X82.209 Y115.732 E34.24874
G1 X81.877 Y115.111 E34.28387
G1 X81.617 Y114.457 E34.31899
G1 X81.433 Y113.777 E34.35413
G1 X81.327 Y113.081 E34.38925
G1 X81.3 Y112.5 E34.41827
G1 X81.3 Y87.5 E35.66553
G1 X81.34 Y86.797 E35.70066
G1 X81.459 Y86.103 E35.73579
G1 X81.657 Y85.428 E35.77088
G1 X81.929 Y84.779 E35.80599
G1 X82.274 Y84.165 E35.84113
G1 X82.685 Y83.594 E35.87622
G1 X83.159 Y83.073 E35.91137
G0 F3600 X83.553 Y83.251
G1 F1800 X84.078 Y82.817 E35.94535
G1 X84.65 Y82.448 E35.97931
G1 X85.262 Y82.149 E36.01329
G1 X85.904 Y81.924 E36.04723
G1 X86.569 Y81.775 E36.08123
G1 X87.5 Y81.7 E36.12783
G1 X112.5 Y81.7 E37.37508
G1 X113.18 Y81.74 E37.40907
G1 X113.85 Y81.859 E37.44302
G1 X114.502 Y82.056 E37.477
G1 X115.126 Y82.328 E37.51096
G1 X115.714 Y82.672 E37.54494
G1 X116.258 Y83.082 E37.57893
G1 X116.749 Y83.553 E37.61287
G1 X117.183 Y84.078 E37.64686
G1 X117.552 Y84.65 E37.68082
G1 X117.851 Y85.262 E37.7148
G1 X118.076 Y85.904 E37.74874
G1 X118.225 Y86.569 E37.78274
G1 X118.3 Y87.5 E37.82934
G1 X118.3 Y112.5 E39.07659
G1 X118.26 Y113.18 E39.11058
G1 X118.141 Y113.85 E39.14453
G1 X117.944 Y114.502 E39.17851
G1 X117.672 Y115.126 E39.21247
G1 X117.328 Y115.714 E39.24645
G1 X116.918 Y116.258 E39.28044
G1 X116.447 Y116.749 E39.31438
G1 X115.922 Y117.183 E39.34837
G1 X115.35 Y117.552 E39.38233
G1 X114.738 Y117.851 E39.41631
G1 X114.096 Y118.076 E39.45025
G1 X113.431 Y118.225 E39.48425
G1 X112.5 Y118.3 E39.53085
G1 X87.5 Y118.3 E40.7781
G1 X86.82 Y118.26 E40.81209
G1 X86.15 Y118.141 E40.84604
G1 X85.498 Y117.944 E40.88002
G1 X84.874 Y117.672 E40.91398
G1 X84.286 Y117.328 E40.94796
G1 X83.742 Y116.918 E40.98195
G1 X83.251 Y116.447 E41.01589
G1 X82.817 Y115.922 E41.04988
G1 X82.448 Y115.35 E41.08384
G1 X82.149 Y114.738 E41.11782
G1 X81.924 Y114.096 E41.15176
G1 X81.775 Y113.431 E41.18576
G1 X81.7 Y112.5 E41.23236
G1 X81.7 Y87.5 E42.47961
G1 X81.74 Y86.82 E42.51359
G1 X81.859 Y86.15 E42.54754
G1 X82.056 Y85.498 E42.58153
G1 X82.328 Y84.874 E42.61549
G1 X82.672 Y84.286 E42.64947
G1 X83.082 Y83.742 E42.68346
G1 X83.553 Y83.251 E42.7174
G0 F3600 X83.945 Y83.435
G1 F1800 X84.465 Y83.034 E42.75016
G1 X85.029 Y82.698 E42.78292
G1 X85.631 Y82.434 E42.81571
G1 X86.26 Y82.244 E42.84849
G1 X86.907 Y82.133 E42.88124
G1 X87.5 Y82.1 E42.91087
G1 X112.5 Y82.1 E44.15813
G1 X113.156 Y82.14 E44.19092
G1 X113.802 Y82.259 E44.22369
G1 X114.429 Y82.456 E44.25648
G1 X115.027 Y82.728 E44.28925
G1 X115.588 Y83.07 E44.32203
G1 X116.103 Y83.478 E44.35481
G1 X116.565 Y83.945 E44.38759
G1 X116.966 Y84.465 E44.42035
G1 X117.302 Y85.029 E44.4531
G1 X117.566 Y85.631 E44.48589
G1 X117.756 Y86.26 E44.51868
G1 X117.867 Y86.907 E44.55143
G1 X117.9 Y87.5 E44.58106
G1 X117.9 Y112.5 E45.82831
G1 X117.86 Y113.156 E45.8611
G1 X117.741 Y113.802 E45.89387
G1 X117.544 Y114.429 E45.92666
G1 X117.272 Y115.027 E45.95944
G1 X116.93 Y115.588 E45.99222
G1 X116.522 Y116.103 E46.02499
G1 X116.055 Y116.565 E46.05777
G1 X115.535 Y116.966 E46.09053
G1 X114.971 Y117.302 E46.12328
G1 X114.369 Y117.566 E46.15608
G1 X113.74 Y117.756 E46.18886
G1 X113.093 Y117.867 E46.22161
G1 X112.5 Y117.9 E46.25124
G1 X87.5 Y117.9 E47.49849
G1 X86.844 Y117.86 E47.53128
G1 X86.198 Y117.741 E47.56405
G1 X85.571 Y117.544 E47.59684
G1 X84.973 Y117.272 E47.62962
G1 X84.412 Y116.93 E47.6624
G1 X83.897 Y116.522 E47.69518
G1 X83.435 Y116.055 E47.72795
G1 X83.034 Y115.535 E47.76071
G1 X82.698 Y114.971 E47.79347
G1 X82.434 Y114.369 E47.82626
G1 X82.244 Y113.74 E47.85904
G1 X82.133 Y113.093 E47.89179
G1 X82.1 Y112.5 E47.92142
G1 X82.1 Y87.5 E49.16868
G1 X82.14 Y86.844 E49.20147
G1 X82.259 Y86.198 E49.23424
G1 X82.456 Y85.571 E49.26703
G1 X82.728 Y84.973 E49.2998
G1 X83.07 Y84.412 E49.33258
G1 X83.478 Y83.897 E49.36536
G1 X83.945 Y83.435 E49.39813
G0 F3600 X83.873 Y84.059
G1 F1800 X84.336 Y83.629 E49.42966
G1 X84.85 Y83.26 E49.46123
G1 X85.406 Y82.96 E49.49275
G1 X85.995 Y82.732 E49.52426
G1 X86.609 Y82.58 E49.55581
G1 X87.5 Y82.5 E49.60044
G1 X112.5 Y82.5 E50.8477
G1 X113.131 Y82.54 E50.87924
G1 X113.752 Y82.659 E50.91079
G1 X114.352 Y82.856 E50.94229
G1 X114.924 Y83.127 E50.97387
G1 X115.456 Y83.467 E51.00537
G1 X115.941 Y83.873 E51.03693
G1 X116.371 Y84.336 E51.06845
G1 X116.74 Y84.85 E51.10002
G1 X117.04 Y85.406 E51.13154
G1 X117.268 Y85.995 E51.16305
G1 X117.42 Y86.609 E51.19461
G1 X117.5 Y87.5 E51.23924
G1 X117.5 Y112.5 E52.48649
G1 X117.46 Y113.131 E52.51804
G1 X117.341 Y113.752 E52.54958
G1 X117.144 Y114.352 E52.58109
G1 X116.873 Y114.924 E52.61267
G1 X116.533 Y115.456 E52.64416
G1 X116.127 Y115.941 E52.67572
G1 X115.664 Y116.371 E52.70724
G1 X115.15 Y116.74 E52.73881
G1 X114.594 Y117.04 E52.77033
G1 X114.005 Y117.268 E52.80184
G1 X113.391 Y117.42 E52.8334
G1 X112.5 Y117.5 E52.87803
G1 X87.5 Y117.5 E54.12528
G1 X86.869 Y117.46 E54.15683
G1 X86.248 Y117.341 E54.18837
G1 X85.648 Y117.144 E54.21988
G1 X85.076 Y116.873 E54.25146
G1 X84.544 Y116.533 E54.28296
G1 X84.059 Y116.127 E54.31451
G1 X83.629 Y115.664 E54.34604
G1 X83.26 Y115.15 E54.37761
G1 X82.96 Y114.594 E54.40912
G1 X82.732 Y114.005 E54.44063
G1 X82.58 Y113.391 E54.47219
G1 X82.5 Y112.5 E54.51682
G1 X82.5 Y87.5 E55.76408
G1 X82.54 Y86.869 E55.79562
G1 X82.659 Y86.248 E55.82717
G1 X82.856 Y85.648 E55.85867
G1 X83.127 Y85.076 E55.89025
G1 X83.467 Y84.544 E55.92175
G1 X83.873 Y84.059 E55.95331
G0 F3600 X84.267 Y84.228
G1 F1800 X84.725 Y83.831 E55.98355
G1 X85.232 Y83.498 E56.01381
G1 X85.778 Y83.234 E56.04407
G1 X86.354 Y83.045 E56.07431
G1 X86.95 Y82.933 E56.10456
G1 X87.5 Y82.9 E56.13205
G1 X112.5 Y82.9 E57.37931
G1 X113.105 Y82.94 E57.40956
G1 X113.699 Y83.059 E57.43978
G1 X114.273 Y83.255 E57.47004
G1 X114.816 Y83.526 E57.50032
G1 X115.319 Y83.865 E57.53058
G1 X115.772 Y84.267 E57.5608
G1 X116.169 Y84.725 E57.59104
G1 X116.502 Y85.232 E57.6213
G1 X116.766 Y85.778 E57.65156
G1 X116.955 Y86.354 E57.6818
G1 X117.067 Y86.95 E57.71205
G1 X117.1 Y87.5 E57.73954
G1 X117.1 Y112.5 E58.9868
G1 X117.06 Y113.105 E59.01705
G1 X116.941 Y113.699 E59.04727
G1 X116.745 Y114.273 E59.07753
G1 X116.474 Y114.816 E59.10781
G1 X116.135 Y115.319 E59.13807
G1 X115.733 Y115.772 E59.16829
G1 X115.275 Y116.169 E59.19853
G1 X114.768 Y116.502 E59.22879
G1 X114.222 Y116.766 E59.25905
G1 X113.646 Y116.955 E59.28929
G1 X113.05 Y117.067 E59.31954
G1 X112.5 Y117.1 E59.34703
G1 X87.5 Y117.1 E60.59429
G1 X86.895 Y117.06 E60.62454
G1 X86.301 Y116.941 E60.65476
G1 X85.727 Y116.745 E60.68502
