;FLAVOR:Marlin
;TIME:1685
;Filament used: 1.44441m
;Layer height: 0.2
;MINX:81.4
;MINY:81.4
;MINZ:0.3
;MAXX:118.6
;MAXY:118.6
;MAXZ:19.9
;Generated with Cura_SteamEngine 4.13.1
M140 S60
M105
M190 S60
M104 S200
M105
M109 S200
M82 ;absolute extrusion mode
G21 ;metric values
 G90 ;absolute positioning
 M82 ;set extruder to absolute mode
 M107 ;start with the fan off
 G28 X0 Y0 ;move X/Y to min endstops
 G28 Z0 ;move Z to min endstops
 G1 Z15.0 F120 ;move the platform down 15mm
 G92 E0 ;zero the extruded length
 G1 F200 E6 ;extrude 6 mm of feed stock
 G92 E0 ;zero the extruded length again
 G1 F120 
 ;Put printing message on LCD screen
 M117 Printing...
G92 E0
G92 E0
G1 F1500 E-6.5
;LAYER_COUNT:100
;LAYER:0
M107
G0 F3600 X82.397 Y82.531 Z0.3
;TYPE:SKIRT
G1 F1500 E0
G1 F1800 X82.794 Y82.171 E0.02674
G1 X83.241 Y81.873 E0.05354
G1 X83.726 Y81.645 E0.08028
G1 X84.24 Y81.492 E0.10703
G1 X84.908 Y81.41 E0.14061
G1 X85.33 Y81.4 E0.16167
G1 X114.345 Y81.4 E1.60923
G1 X115.043 Y81.41 E1.64406
G1 X115.577 Y81.458 E1.67081
G1 X116.098 Y81.584 E1.69755
G1 X116.595 Y81.787 E1.72433
G1 X117.056 Y82.061 E1.75109
G1 X117.471 Y82.4 E1.77782
G1 X117.831 Y82.798 E1.8046
G1 X118.128 Y83.244 E1.83133
G1 X118.356 Y83.73 E1.85811
G1 X118.508 Y84.244 E1.88485
G1 X118.59 Y84.909 E1.91828
G1 X118.6 Y85.33 E1.93929
G1 X118.6 Y114.309 E3.38506
G1 X118.591 Y115.036 E3.42133
G1 X118.544 Y115.57 E3.44808
G1 X118.419 Y116.091 E3.47481
G1 X118.217 Y116.588 E3.50157
G1 X117.944 Y117.05 E3.52835
G1 X117.606 Y117.466 E3.55509
G1 X117.209 Y117.827 E3.58186
G1 X116.763 Y118.125 E3.60862
G1 X116.278 Y118.353 E3.63536
G1 X115.764 Y118.507 E3.66213
G1 X115.092 Y118.59 E3.69591
G1 X114.67 Y118.6 E3.71697
G1 X85.661 Y118.6 E5.16423
G1 X84.963 Y118.591 E5.19906
G1 X84.428 Y118.544 E5.22585
G1 X83.907 Y118.418 E5.25259
G1 X83.41 Y118.216 E5.27936
G1 X82.949 Y117.943 E5.30609
G1 X82.533 Y117.604 E5.33286
G1 X82.172 Y117.208 E5.3596
G1 X81.874 Y116.762 E5.38636
G1 X81.646 Y116.276 E5.41314
G1 X81.493 Y115.762 E5.43989
G1 X81.41 Y115.088 E5.47377
G1 X81.4 Y114.658 E5.49523
G1 X81.4 Y85.625 E6.9437
G1 X81.409 Y84.96 E6.97688
G1 X81.457 Y84.426 E7.00362
G1 X81.583 Y83.905 E7.03037
G1 X81.785 Y83.408 E7.05713
G1 X82.058 Y82.947 E7.08386
G1 X82.397 Y82.531 E7.11063
G0 F3600 X82.789 Y82.704
G1 F1800 X83.18 Y82.383 E7.13587
G1 X83.617 Y82.128 E7.16111
G1 X84.088 Y81.944 E7.18634
G1 X84.582 Y81.838 E7.21155
G1 X85.24 Y81.801 E7.24443
G1 X114.339 Y81.8 E8.69618
G1 X115.037 Y81.81 E8.73101
G1 X115.54 Y81.857 E8.75622
G1 X116.03 Y81.983 E8.78146
G1 X116.494 Y82.185 E8.8067
G1 X116.92 Y82.457 E8.83192
G1 X117.298 Y82.792 E8.85712
G1 X117.618 Y83.183 E8.88233
G1 X117.873 Y83.62 E8.90757
G1 X118.056 Y84.091 E8.93278
G1 X118.163 Y84.585 E8.958
G1 X118.199 Y85.24 E8.99072
G1 X118.2 Y114.304 E10.44073
G1 X118.191 Y115.031 E10.477
G1 X118.145 Y115.534 E10.5022
G1 X118.02 Y116.024 E10.52743
G1 X117.819 Y116.488 E10.55266
G1 X117.548 Y116.915 E10.57789
G1 X117.213 Y117.294 E10.60313
G1 X116.823 Y117.615 E10.62833
G1 X116.387 Y117.871 E10.65355
G1 X115.916 Y118.054 E10.67876
G1 X115.422 Y118.162 E10.70399
G1 X114.76 Y118.199 E10.73707
G1 X85.666 Y118.2 E12.18857
G1 X84.968 Y118.191 E12.2234
G1 X84.464 Y118.144 E12.24865
G1 X83.974 Y118.019 E12.27388
G1 X83.51 Y117.818 E12.29911
G1 X83.084 Y117.547 E12.3243
G1 X82.705 Y117.212 E12.34954
G1 X82.384 Y116.821 E12.37478
G1 X82.129 Y116.385 E12.39998
G1 X81.945 Y115.914 E12.4252
G1 X81.838 Y115.42 E12.45042
G1 X81.801 Y114.744 E12.4842
G1 X81.8 Y85.631 E13.93665
G1 X81.809 Y84.966 E13.96983
G1 X81.856 Y84.462 E13.99508
G1 X81.982 Y83.973 E14.02028
G1 X82.183 Y83.509 E14.0455
G1 X82.454 Y83.082 E14.07074
G1 X82.789 Y82.704 E14.09593
G1 F1500 E7.59593
;MESH:Smooth Stantia-Crift.stl
G0 F3600 X85.614 Y84.335
G0 X85.614 Y85.614
G0 X114.33 Y114.33
G1 F1500 E14.09593
G0 F3600 X114.4 Y114.4
;TYPE:WALL-INNER
G1 F1800 X85.6 Y114.4 E15.53277
G1 X85.6 Y85.6 E16.96961
G1 X114.4 Y85.6 E18.40645
G1 X114.4 Y114.4 E19.84329
G0 F3600 X114.8 Y114.8
;TYPE:WALL-OUTER
G1 F1800 X85.2 Y114.8 E21.32004
G1 X85.2 Y85.2 E22.79679
G1 X114.8 Y85.2 E24.27354
G1 X114.8 Y114.8 E25.75029
G0 F3600 X114.6 Y114.8
G0 X114.01 Y114.01
;TYPE:SKIN
G1 F1800 X85.99 Y114.01 E27.14821
G1 X85.99 Y85.99 E28.54613
G1 X114.01 Y85.99 E29.94406
G1 X114.01 Y114.01 E31.34198
G0 F3600 X113.829 Y86.676
G1 F1800 X113.323 Y86.17 E31.37768
G0 F3600 X112.757 Y86.17
G1 F1800 X113.829 Y87.242 E31.45332
G0 F3600 X113.829 Y87.807
G1 F1800 X112.191 Y86.17 E31.56885
G0 F3600 X111.625 Y86.17
G1 F1800 X113.829 Y88.373 E31.72432
G0 F3600 X113.829 Y88.939
G1 F1800 X111.06 Y86.17 E31.91969
G0 F3600 X110.494 Y86.17
G1 F1800 X113.829 Y89.504 E32.15495
G0 F3600 X113.829 Y90.07
G1 F1800 X109.928 Y86.17 E32.43016
G0 F3600 X109.363 Y86.17
G1 F1800 X113.829 Y90.636 E32.74526
G0 F3600 X113.829 Y91.201
G1 F1800 X108.797 Y86.17 E33.10026
G0 F3600 X108.231 Y86.17
G1 F1800 X113.829 Y91.767 E33.49519
G0 F3600 X113.829 Y92.333
G1 F1800 X107.666 Y86.17 E33.93002
G0 F3600 X107.1 Y86.17
G1 F1800 X113.829 Y92.898 E34.40475
G0 F3600 X113.829 Y93.464
G1 F1800 X106.534 Y86.17 E34.91942
G0 F3600 X105.969 Y86.17
G1 F1800 X113.829 Y94.03 E35.47399
G0 F3600 X113.829 Y94.596
G1 F1800 X105.403 Y86.17 E36.06849
G0 F3600 X104.837 Y86.17
G1 F1800 X113.829 Y95.161 E36.70289
G0 F3600 X113.829 Y95.727
G1 F1800 X104.272 Y86.17 E37.37718
G0 F3600 X103.706 Y86.17
G1 F1800 X113.829 Y96.293 E38.09142
G0 F3600 X113.829 Y96.858
G1 F1800 X103.14 Y86.17 E38.84555
G0 F3600 X102.575 Y86.17
G1 F1800 X113.829 Y97.424 E39.63958
G0 F3600 X113.829 Y97.99
G1 F1800 X102.009 Y86.17 E40.47354
G0 F3600 X101.443 Y86.17
G1 F1800 X113.829 Y98.555 E41.34741
G0 F3600 X113.829 Y99.121
G1 F1800 X100.877 Y86.17 E42.2612
G0 F3600 X100.312 Y86.17
G1 F1800 X113.829 Y99.687 E43.2149
G0 F3600 X113.829 Y100.252
G1 F1800 X99.746 Y86.17 E44.2085
G0 F3600 X99.18 Y86.17
G1 F1800 X113.829 Y100.818 E45.24203
G0 F3600 X113.829 Y101.384
G1 F1800 X98.615 Y86.17 E46.31546
G0 F3600 X98.049 Y86.17
G1 F1800 X113.829 Y101.949 E47.42879
G0 F3600 X113.829 Y102.515
G1 F1800 X97.483 Y86.17 E48.58205
G0 F3600 X96.918 Y86.17
G1 F1800 X113.829 Y103.081 E49.77521
G0 F3600 X113.829 Y103.647
G1 F1800 X96.352 Y86.17 E51.00831
G0 F3600 X95.786 Y86.17
G1 F1800 X113.829 Y104.212 E52.28131
G0 F3600 X113.829 Y104.778
G1 F1800 X95.221 Y86.17 E53.5942
G0 F3600 X94.655 Y86.17
G1 F1800 X113.829 Y105.344 E54.94703
G0 F3600 X113.829 Y105.909
G1 F1800 X94.089 Y86.17 E56.33976
G0 F3600 X93.524 Y86.17
G1 F1800 X113.829 Y106.475 E57.77239
G0 F3600 X113.829 Y107.041
G1 F1800 X92.958 Y86.17 E59.24495
G0 F3600 X92.392 Y86.17
G1 F1800 X113.829 Y107.606 E60.75741
G0 F3600 X113.829 Y108.172
G1 F1800 X91.827 Y86.17 E62.30977
G0 F3600 X91.261 Y86.17
G1 F1800 X113.829 Y108.738 E63.90206
G0 F3600 X113.829 Y109.303
G1 F1800 X90.695 Y86.17 E65.53426
G0 F3600 X90.129 Y86.17
G1 F1800 X113.829 Y109.869 E67.20638
G0 F3600 X113.829 Y110.435
G1 F1800 X89.564 Y86.17 E68.91841
G0 F3600 X88.998 Y86.17
G1 F1800 X113.829 Y111 E70.67034
G0 F3600 X113.829 Y111.566
G1 F1800 X88.432 Y86.17 E72.4622
G0 F3600 X87.867 Y86.17
G1 F1800 X113.829 Y112.132 E74.29396
G0 F3600 X113.829 Y112.697
G1 F1800 X87.301 Y86.17 E76.16561
G0 F3600 X86.735 Y86.17
G1 F1800 X113.829 Y113.263 E78.07721
G0 F3600 X113.829 Y113.829
G1 F1800 X86.169 Y86.169 E80.02877
G0 F3600 X86.169 Y86.735
G1 F1800 X113.263 Y113.829 E81.9404
G0 F3600 X112.697 Y113.829
G1 F1800 X86.169 Y87.3 E83.81213
G0 F3600 X86.169 Y87.866
G1 F1800 X112.132 Y113.829 E85.64396
G0 F3600 X111.566 Y113.829
G1 F1800 X86.169 Y88.432 E87.43585
G0 F3600 X86.169 Y88.997
G1 F1800 X111 Y113.829 E89.18785
G0 F3600 X110.435 Y113.829
G1 F1800 X86.169 Y89.563 E90.89995
G0 F3600 X86.169 Y90.129
G1 F1800 X109.869 Y113.829 E92.57211
G0 F3600 X109.303 Y113.829
G1 F1800 X86.169 Y90.694 E94.20437
G0 F3600 X86.169 Y91.26
G1 F1800 X108.738 Y113.829 E95.79674
G0 F3600 X108.172 Y113.829
G1 F1800 X86.169 Y91.826 E97.34917
G0 F3600 X86.169 Y92.391
G1 F1800 X107.606 Y113.829 E98.8617
G0 F3600 X107.041 Y113.829
G1 F1800 X86.169 Y92.957 E100.33433
G0 F3600 X86.169 Y93.523
G1 F1800 X106.475 Y113.829 E101.76703
G0 F3600 X105.909 Y113.829
G1 F1800 X86.169 Y94.089 E103.15979
G0 F3600 X86.169 Y94.654
G1 F1800 X105.344 Y113.829 E104.51269
G0 F3600 X104.778 Y113.829
G1 F1800 X86.169 Y95.22 E105.82566
G0 F3600 X86.169 Y95.786
G1 F1800 X104.212 Y113.829 E107.09869
G0 F3600 X103.647 Y113.829
G1 F1800 X86.169 Y96.351 E108.33186
G0 F3600 X86.169 Y96.917
G1 F1800 X103.081 Y113.829 E109.52509
G0 F3600 X102.515 Y113.829
G1 F1800 X86.169 Y97.483 E110.67839
G0 F3600 X86.169 Y98.048
G1 F1800 X101.949 Y113.829 E111.79179
G0 F3600 X101.384 Y113.829
G1 F1800 X86.169 Y98.614 E112.86529
G0 F3600 X86.169 Y99.18
G1 F1800 X100.818 Y113.829 E113.89885
G0 F3600 X100.252 Y113.829
G1 F1800 X86.169 Y99.745 E114.89252
G0 F3600 X86.169 Y100.311
G1 F1800 X99.687 Y113.829 E115.84629
G0 F3600 X99.121 Y113.829
G1 F1800 X86.169 Y100.877 E116.76012
G0 F3600 X86.169 Y101.442
G1 F1800 X98.555 Y113.829 E117.63406
G0 F3600 X97.99 Y113.829
G1 F1800 X86.169 Y102.008 E118.46809
G0 F3600 X86.169 Y102.574
G1 F1800 X97.424 Y113.829 E119.26219
G0 F3600 X96.858 Y113.829
G1 F1800 X86.169 Y103.14 E120.01636
G0 F3600 X86.169 Y103.705
G1 F1800 X96.293 Y113.829 E120.73066
G0 F3600 X95.727 Y113.829
G1 F1800 X86.169 Y104.271 E121.40503
G0 F3600 X86.169 Y104.837
G1 F1800 X95.161 Y113.829 E122.03947
G0 F3600 X94.596 Y113.829
G1 F1800 X86.169 Y105.402 E122.63404
G0 F3600 X86.169 Y105.968
G1 F1800 X94.03 Y113.829 E123.18867
G0 F3600 X93.464 Y113.829
G1 F1800 X86.169 Y106.534 E123.70337
G0 F3600 X86.169 Y107.099
G1 F1800 X92.898 Y113.829 E124.17818
G0 F3600 X92.333 Y113.829
G1 F1800 X86.169 Y107.665 E124.61308
G0 F3600 X86.169 Y108.231
G1 F1800 X91.767 Y113.829 E125.00805
G0 F3600 X91.201 Y113.829
G1 F1800 X86.169 Y108.796 E125.36312
G0 F3600 X86.169 Y109.362
G1 F1800 X90.636 Y113.829 E125.67829
G0 F3600 X90.07 Y113.829
G1 F1800 X86.169 Y109.928 E125.95353
G0 F3600 X86.169 Y110.493
G1 F1800 X89.504 Y113.829 E126.18886
G0 F3600 X88.939 Y113.829
G1 F1800 X86.169 Y111.059 E126.3843
G0 F3600 X86.169 Y111.625
G1 F1800 X88.373 Y113.829 E126.53981
G0 F3600 X87.807 Y113.829
G1 F1800 X86.169 Y112.19 E126.65541
G0 F3600 X86.169 Y112.756
G1 F1800 X87.242 Y113.829 E126.73112
G0 F3600 X86.676 Y113.829
G1 F1800 X86.169 Y113.322 E126.76689
;MESH:NONMESH
G0 F600 X86.169 Y113.322 Z0.5
G0 F3600 X114.33 Y114.33
G0 X114.4 Y114.4
;TIME_ELAPSED:97.403916
;LAYER:1
M106 S255
;TYPE:WALL-INNER
;MESH:Smooth Stantia-Crift.stl
G1 F2700 X85.6 Y114.4 E127.72478
G1 X85.6 Y85.6 E128.68267
G1 X114.4 Y85.6 E129.64057
G1 X114.4 Y114.4 E130.59846
G0 F5400 X114.8 Y114.8
;TYPE:WALL-OUTER
G1 F1800 X85.2 Y114.8 E131.58296
G1 X85.2 Y85.2 E132.56746
G1 X114.8 Y85.2 E133.55196
G1 X114.8 Y114.8 E134.53646
G0 F5400 X114.6 Y114.8
G0 X114.01 Y114.01
;TYPE:SKIN
G1 F1800 X85.99 Y114.01 E135.46841
G1 X85.99 Y85.99 E136.40036
G1 X114.01 Y85.99 E137.3323
G1 X114.01 Y114.01 E138.26425
G0 F5400 X113.576 Y113.829
G1 F1800 X113.829 Y113.576 E138.27615
G0 F5400 X113.829 Y113.01
G1 F1800 X113.01 Y113.829 E138.31468
G0 F5400 X112.444 Y113.829
G1 F1800 X113.829 Y112.444 E138.37982
G0 F5400 X113.829 Y111.879
G1 F1800 X111.879 Y113.829 E138.47155
G0 F5400 X111.313 Y113.829
G1 F1800 X113.829 Y111.313 E138.58989
G0 F5400 X113.829 Y110.747
G1 F1800 X110.747 Y113.829 E138.73486
G0 F5400 X110.182 Y113.829
G1 F1800 X113.829 Y110.182 E138.9064
G0 F5400 X113.829 Y109.616
G1 F1800 X109.616 Y113.829 E139.10457
G0 F5400 X109.05 Y113.829
G1 F1800 X113.829 Y109.05 E139.32936
G0 F5400 X113.829 Y108.485
G1 F1800 X108.485 Y113.829 E139.58072
G0 F5400 X107.919 Y113.829
G1 F1800 X113.829 Y107.919 E139.85871
G0 F5400 X113.829 Y107.353
G1 F1800 X107.353 Y113.829 E140.16332
G0 F5400 X106.787 Y113.829
G1 F1800 X113.829 Y106.787 E140.49456
G0 F5400 X113.829 Y106.222
G1 F1800 X106.222 Y113.829 E140.85237
G0 F5400 X105.656 Y113.829
G1 F1800 X113.829 Y105.656 E141.2368
G0 F5400 X113.829 Y105.09
G1 F1800 X105.09 Y113.829 E141.64786
G0 F5400 X104.525 Y113.829
G1 F1800 X113.829 Y104.525 E142.08549
G0 F5400 X113.829 Y103.959
G1 F1800 X103.959 Y113.829 E142.54974
G0 F5400 X103.393 Y113.829
G1 F1800 X113.829 Y103.393 E143.04062
G0 F5400 X113.829 Y102.828
G1 F1800 X102.828 Y113.829 E143.55807
G0 F5400 X102.262 Y113.829
G1 F1800 X113.829 Y102.262 E144.10215
G0 F5400 X113.829 Y101.696
G1 F1800 X101.696 Y113.829 E144.67285
G0 F5400 X101.131 Y113.829
G1 F1800 X113.829 Y101.131 E145.27012
G0 F5400 X113.829 Y100.565
G1 F1800 X100.565 Y113.829 E145.89402
G0 F5400 X99.999 Y113.829
G1 F1800 X113.829 Y99.999 E146.54454
G0 F5400 X113.829 Y99.434
G1 F1800 X99.434 Y113.829 E147.22164
G0 F5400 X98.868 Y113.829
G1 F1800 X113.829 Y98.868 E147.92536
G0 F5400 X113.829 Y98.302
G1 F1800 X98.302 Y113.829 E148.6557
G0 F5400 X97.737 Y113.829
G1 F1800 X113.829 Y97.737 E149.41262
G0 F5400 X113.829 Y97.171
G1 F1800 X97.171 Y113.829 E150.19616
G0 F5400 X96.605 Y113.829
G1 F1800 X113.829 Y96.605 E151.00632
G0 F5400 X113.829 Y96.039
G1 F1800 X96.039 Y113.829 E151.84311
G0 F5400 X95.474 Y113.829
G1 F1800 X113.829 Y95.474 E152.70647
G0 F5400 X113.829 Y94.908
G1 F1800 X94.908 Y113.829 E153.59646
G0 F5400 X94.342 Y113.829
G1 F1800 X113.829 Y94.342 E154.51307
G0 F5400 X113.829 Y93.777
G1 F1800 X93.777 Y113.829 E155.45625
G0 F5400 X93.211 Y113.829
G1 F1800 X113.829 Y93.211 E156.42606
G0 F5400 X113.829 Y92.645
G1 F1800 X92.645 Y113.829 E157.42249
G0 F5400 X92.08 Y113.829
G1 F1800 X113.829 Y92.08 E158.4455
G0 F5400 X113.829 Y91.514
G1 F1800 X91.514 Y113.829 E159.49513
G0 F5400 X90.948 Y113.829
G1 F1800 X113.829 Y90.948 E160.57138
G0 F5400 X113.829 Y90.383
G1 F1800 X90.383 Y113.829 E161.67421
G0 F5400 X89.817 Y113.829
G1 F1800 X113.829 Y89.817 E162.80366
G0 F5400 X113.829 Y89.251
G1 F1800 X89.251 Y113.829 E163.95973
G0 F5400 X88.686 Y113.829
G1 F1800 X113.829 Y88.686 E165.14238
G0 F5400 X113.829 Y88.12
G1 F1800 X88.12 Y113.829 E166.35165
G0 F5400 X87.554 Y113.829
G1 F1800 X113.829 Y87.554 E167.58755
G0 F5400 X113.829 Y86.988
G1 F1800 X86.988 Y113.829 E168.85007
G0 F5400 X86.423 Y113.829
G1 F1800 X113.829 Y86.423 E170.13916
G0 F5400 X113.517 Y86.169
G1 F1800 X86.17 Y113.516 E171.42548
G0 F5400 X86.17 Y112.951
G1 F1800 X112.951 Y86.169 E172.6852
G0 F5400 X112.386 Y86.169
G1 F1800 X86.17 Y112.385 E173.91832
G0 F5400 X86.17 Y111.819
G1 F1800 X111.82 Y86.169 E175.12482
G0 F5400 X111.254 Y86.169
G1 F1800 X86.17 Y111.254 E176.30472
G0 F5400 X86.17 Y110.688
G1 F1800 X110.689 Y86.169 E177.45801
G0 F5400 X110.123 Y86.169
G1 F1800 X86.17 Y110.122 E178.58469
G0 F5400 X86.17 Y109.557
G1 F1800 X109.557 Y86.169 E179.68477
G0 F5400 X108.992 Y86.169
G1 F1800 X86.17 Y108.991 E180.75824
G0 F5400 X86.17 Y108.425
G1 F1800 X108.426 Y86.169 E181.8051
G0 F5400 X107.86 Y86.169
G1 F1800 X86.17 Y107.859 E182.82533
G0 F5400 X86.17 Y107.294
G1 F1800 X107.294 Y86.169 E183.81896
G0 F5400 X106.729 Y86.169
G1 F1800 X86.17 Y106.728 E184.78599
G0 F5400 X86.17 Y106.162
G1 F1800 X106.163 Y86.169 E185.7264
G0 F5400 X105.597 Y86.169
G1 F1800 X86.17 Y105.597 E186.64021
G0 F5400 X86.17 Y105.031
G1 F1800 X105.032 Y86.169 E187.52742
G0 F5400 X104.466 Y86.169
G1 F1800 X86.17 Y104.465 E188.38801
G0 F5400 X86.17 Y103.9
G1 F1800 X103.9 Y86.169 E189.222
G0 F5400 X103.335 Y86.169
G1 F1800 X86.17 Y103.334 E190.02939
G0 F5400 X86.17 Y102.768
G1 F1800 X102.769 Y86.169 E190.81015
G0 F5400 X102.203 Y86.169
G1 F1800 X86.17 Y102.203 E191.56432
G0 F5400 X86.17 Y101.637
G1 F1800 X101.638 Y86.169 E192.29189
G0 F5400 X101.072 Y86.169
G1 F1800 X86.17 Y101.071 E192.99283
G0 F5400 X86.17 Y100.506
G1 F1800 X100.506 Y86.169 E193.66718
G0 F5400 X99.941 Y86.169
G1 F1800 X86.17 Y99.94 E194.31492
G0 F5400 X86.17 Y99.374
G1 F1800 X99.375 Y86.169 E194.93604
G0 F5400 X98.809 Y86.169
G1 F1800 X86.17 Y98.808 E195.53054
G0 F5400 X86.17 Y98.243
G1 F1800 X98.244 Y86.169 E196.09847
G0 F5400 X97.678 Y86.169
G1 F1800 X86.17 Y97.677 E196.63977
G0 F5400 X86.17 Y97.111
G1 F1800 X97.112 Y86.169 E197.15445
G0 F5400 X96.546 Y86.169
G1 F1800 X86.17 Y96.546 E197.64253
G0 F5400 X86.17 Y95.98
G1 F1800 X95.981 Y86.169 E198.10401
G0 F5400 X95.415 Y86.169
G1 F1800 X86.17 Y95.414 E198.53886
